X: 1
T: A & E Rag
R: reel
Z: 2006 John Chambers <jc@trillian.mit.edu>
M: C|
L: 1/8
K: A
|: "A"a2g2 a3e | fecf ecBA | "E7"G2G2 GEFG |1,3 "A"ABcd ecBA :|2,4 "A"A2A2 A4 :|
K: E
|: "E"b2b2 g4 | e2g2 B4 | "B7"B^ABc dBcd |1,3 "E"edef gefg :|2,4 "E"e4 :|
